src/images/dist/logo.svg

<svg width="106" height="15" viewBox="0 0 106 15" fill="none" xmlns="http://www.w3.org/2000/svg">
<path fill-rule="evenodd" clip-rule="evenodd" d="M0 0.0048158H11.9099L11.5304 3.82615L7.12773 3.22418V6.04984H11.3115L11.0471 8.72863H7.1252V14.9892H0V0.0048158ZM32.095 8.73826H34.8479L33.8093 5.39851L40.8219 6.10763L43.9101 14.3848L45.0208 6.53142L64.9011 8.54202L65.7866 14.5184L67.8374 8.83939L84.9976 10.5755L86.3968 14.3402L88.7108 10.9511L95.4159 11.6289L93.832 15H79.4095L78.629 12.4874H73.5242L72.7271 15H59.1498L58.2427 9.45341L56.5904 14.994H53.1012L51.449 9.44739L50.5419 14.994H36.7899L36.0093 12.4813H30.9096L30.11 14.994H13.4217V3.33614L20.7165 4.07416V10.6634H24.632L26.8207 4.69059L33.1805 5.33349L32.1001 8.73826H32.095ZM33.5904 4.68938L33.4854 4.35468L33.3855 4.67253L27.0282 4.10908L27.4318 3.00626L39.978 3.83217L40.5233 5.30219L33.5904 4.68697V4.68938ZM27.6215 2.48736L27.9745 1.5242L39.2493 1.89381L39.7098 3.12666L27.6215 2.49097V2.48736ZM28.1706 0.986034L28.5299 0.0048158H38.5459L38.9976 1.21478L28.1706 0.986034ZM13.4217 2.90152V2.08404L20.7165 2.56562V3.54924L13.4217 2.90272V2.90152ZM13.4217 1.73971V1.04382L20.7165 1.28461V2.12738L13.4217 1.74332V1.73971ZM13.4217 0.674211V0.0048158H20.7165V0.828317L13.4217 0.674211ZM45.136 5.71394L45.3523 4.18493L54.5219 4.7869L54.8686 6.05827L55.1748 4.83024L64.4431 5.43944L64.7391 7.45124L45.1296 5.71274L45.136 5.71394ZM45.4598 3.42644L45.6471 2.10209L53.8628 2.37178L54.274 3.89116L45.456 3.42644H45.4598ZM45.7521 1.35805L45.9431 0.0048158H53.2163L53.6313 1.5242L45.7521 1.35805ZM55.3936 3.95016L55.7732 2.43198L64.042 2.70287L64.2951 4.41849L55.3962 3.95016H55.3936ZM55.9844 1.56995L56.3754 0.0048158H63.6359L63.889 1.74091L55.9844 1.56995ZM68.222 7.75825L68.9495 5.73802L75.5281 6.17024L74.8348 8.34818L68.222 7.76186V7.75825ZM69.329 4.68336L69.978 2.89429L82.294 3.29762L83.0759 5.40332L76.3176 5.04816L76.1012 4.35107L75.8874 5.02528L69.329 4.68336ZM70.3411 1.87816L71.023 0.0048158H81.0681L81.8538 2.12136L70.3411 1.88057V1.87816ZM83.5516 6.69396L84.4827 9.19937L77.4119 8.57693L76.6882 6.24729L83.5566 6.69877L83.5516 6.69396ZM89.5888 9.65206L91.2663 7.20684L101.067 7.85095L103.145 10.8608L89.5938 9.65687L89.5888 9.65206ZM90.4339 5.78979L88.6285 3.50229L95.6728 3.73706L96.0422 4.47387L96.3774 3.76114L102.711 3.96822L100.875 6.34481L90.4389 5.79461L90.4339 5.78979ZM87.6291 2.23814L85.8668 0.0048158H93.7966L94.9997 2.39827L87.6341 2.24296L87.6291 2.23814ZM96.991 2.43679L98.1296 0H105.766L103.782 2.58488L96.9974 2.44161L96.991 2.43679ZM104.296 12.5259L106 14.994H98.3004L96.5672 11.7433L104.297 12.5235L104.296 12.5259Z" fill="white"/>
</svg>

<svg width="106" height="15" fill="none" xmlns="http://www.w3.org/2000/svg"><path fill-rule="evenodd" clip-rule="evenodd" d="M0 .005h11.91l-.38 3.821-4.402-.602V6.05h4.184l-.265 2.679H7.125v6.26H0V.005zm32.095 8.733h2.753l-1.039-3.34 7.013.71 3.088 8.277 1.11-7.854 19.881 2.011.886 5.976 2.05-5.679 17.16 1.736 1.4 3.765 2.314-3.389 6.705.678L93.832 15H79.41l-.781-2.513h-5.105L72.727 15H59.15l-.907-5.547-1.653 5.541h-3.489L51.45 9.447l-.907 5.547H36.79l-.78-2.513h-5.1l-.8 2.513H13.422V3.336l7.294.738v6.59h3.916l2.189-5.973 6.36.642-1.08 3.405h-.006zM33.59 4.69l-.105-.334-.1.318-6.357-.564.404-1.103 12.546.826.545 1.47-6.933-.615v.002zm-5.969-2.202l.354-.963 11.274.37.46 1.233-12.088-.636v-.004zm.55-1.501l.359-.981h10.016l.452 1.21L28.17.986zM13.42 2.902v-.818l7.296.482v.983l-7.295-.646v-.001zm0-1.162v-.696l7.296.24v.843l-7.295-.384V1.74zm0-1.066v-.67h7.296v.824L13.421.674zm31.715 5.04l.216-1.53 9.17.603.347 1.271.306-1.228 9.268.61.296 2.011-19.61-1.738h.007zm.324-2.288l.187-1.324 8.216.27.411 1.52-8.818-.466h.004zm.292-2.068l.191-1.353h7.273l.415 1.52-7.879-.167zm9.642 2.592l.38-1.518 8.268.27.253 1.716-8.899-.468h-.002zm.59-2.38l.391-1.565h7.26l.254 1.736-7.905-.171zm12.238 6.188l.728-2.02 6.578.432-.693 2.178-6.613-.586v-.004zm1.107-3.075l.649-1.789 12.316.404.782 2.105-6.758-.355-.217-.697-.214.674-6.558-.342zm1.012-2.805l.682-1.873h10.045l.786 2.116-11.513-.24v-.003zm13.21 4.816l.932 2.505-7.071-.622-.724-2.33 6.869.452-.005-.005zm6.038 2.958l1.677-2.445 9.801.644 2.078 3.01-13.551-1.204-.005-.005zm.845-3.862l-1.805-2.288 7.044.235.37.737.334-.713 6.334.207-1.836 2.377-10.436-.55-.005-.005zm-2.805-3.552L85.867.005h7.93L95 2.398l-7.366-.155-.005-.005zm9.362.199L98.13 0h7.636l-1.984 2.585-6.785-.143-.006-.005zm7.305 10.089L106 14.994h-7.7l-1.733-3.25 7.73.78-.001.002z" fill="#fff"/></svg>
